!!!OTL: Die Koenigstochter im Heeresdienst Pasol mili ouce na zel'enej luce,
!!!ARE: Europa, Osteuropa, Tschechoslowakei, Slowakei
!!!ARD: Europa%Osteuropa%Tschechoslowakei@Slowakei#
!!!ARL: ? / ?
!!!YOR: 5, S. 86
!!    ????
!!!SCT: Q3095H
!!!YEM: Copyright 1995, estate of Helmut Schaffrath.
**kern
*ICvox
*Ivox
*M2/4
*k[f#]
*G:
=1
{8g
8b
8dd
8cc
=2
8b
4.a
=3
8a
8b
8cc
8b
=4
8g
4a
8r}
=5
{8g
8dd
8dd
8cc
=6
8b
4.g
=7
8cc
8b
4a
=8
8b
8a
4g}
==
!!!AGN: ???
!! Melodievergleich zu Q0095, anderes Lied.
!!!ONB: ESAC (Essen Associative Code) Database: BALLADE
!!!AMT: simple duple
!!!AIN: vox
!!!EED: Helmut Schaffrath
!!!EEV: 1.0
*-
!!!title: @{OTL} [@{SCT}]
